X:1
T:Psalm 146
T:A Major        Simeon Jocelin, 1788
T:Transcribed from The Chorister's Companion, 1788.
T:Isaac Watts, 1719 (Psalm 146, Part 2)                88. 88. 88.
%%score [ 1 2 3 4 ]
L:1/8
Q:1/4=110
M:4/4
K:Ab
V:1 treble nm="Tr." snm="Tr."
V:2 treble nm="C." snm="C."
V:3 treble-8 nm="T." snm="T."
V:4 bass nm="B." snm="B."
V:1
 c8 | A2 A2 A4 | (cB A2) E2 A2 | G8- | G4 A4 | F2 A2 B4- | B2 c2 BA G2 | A8- | A4 c4 | %9
 d2 d2 e2 e2 | (f4 e2) c2 | B8 | z8 | z8 | %14
 z4 z2"_1.   My  days of praise  shall  ne'er  be    past,               While life and thought  and   being   last,            Or    im–mor–ta – li – ty   endures.\n2. Their breath departs, their pomp and power             And thoughts all va  –  nish   in  an  hour,       Nor can they make their promise good.\n3.   His  truth  for  ev  –  er    stands  se – cure;               He saves th'op-pressed, he feeds the poor,      And none shall find his promise vain." A2 | %15
 B2 B2 B4 | F4 E2 F2 | (G4 F4) | G4 A2 A2 | A4 c4 | c2 c2 (c4 | B4) c4 | d2 d2 B2 A2 | A4 G4 | %24
 A8 |] %25
V:2
"_1. I'll   praise  my  Ma – ker          with   my     breath,    And when my voice   is    lost    in       death,     Praise shall employ my no – bler  powers;\n2. Why should  I   make   a            man  my      trust?      Princes must  die    and   turn   to       dust;       Vain   is  the help of  flesh    and   blood:\n3. Hap  – py   the   man   whose   hopes  re   –   ly          On  Israel's  God:     he   made  the      sky,        And earth and seas with  all  their  train:" E8 | %1
 E2 E2 E4 | (F2 GA) G2 F2 | E8 | z4 E4 | F2 F2 G4- | G2 G2 F2 E2 | E8 | z4 A4 | F2 F2 A2 A2 | %10
 A6 A2 | G8 | z8 | z8 | z8 | %15
 z4 z2"_1.   My  days of praise  shall   ne'er  be  past,   While   life and thought and  being   last,   Or   im–mor–ta – li – ty   endures.\n2. Their breath departs, their pomp and power And thoughts all va–nish in an hour,   Nor can they make their promise good.\n3.   His  truth  for  ev  –  er  stands se–cure;  He saves th'op-pressed, he feeds the poor, And none shall find his promise vain." B,2 | %16
 D2 D2 E4 | E4 C2 C2 | E4 E4 | E2 E2 E4 | A4 A2 A2 | G4 A4 | B2 B2 A2 F2 | E4 E4 | E8 |] %25
V:3
 A8 | c2 Bd c4 | A4 B2 Bc | B8 | z4 c4 | A2 c2 e4- | e2 e2 d2 cB | c8 | z4 e4 | B2 B2 c2 c2 | %10
 (A3 B c2) d2 | e8 | z8 | %13
 z4 z2"_1. My  days of praise  shall  ne'er  be  past,                            While  life and thought and   being    last,                       Or    im–mor–ta – li – ty  endures.\n2. Their breath departs, their pomp and power                      And thoughts all  va  –  nish  in  an   hour,               Nor can they make their promise good.\n3. His  truth  for  ev   –   er  stands se – cure;                         He saves th'op–pressed, he feeds the poor,                 And none shall find his promise vain." E2 | %14
 A2 A2 A4 | F4 B2 B2 | B8- | B4 A4 | c2 c2 c4 | c4 e2 e2 | e8- | e4 e4 | f2 f2 f2 a2 | c4 B4 | %24
 A8 |] %25
V:4
 A,8 | A,2 G,2 A,4 | F,4 E,2 D,2 | E,8- | E,4 C,4 | F,2 F,2 E,4- | E,2 C,2 D,2 E,2 | A,8- | %8
 A,4 A,4 | B,2 B,2 A,2 A,2 | (D,4 A,2) A,2 | E,8 | z4"_1. My  \n2. Their \n3. His" C,4 | %13
"_1. days of praise  shall   ne'er  be   past,                         While   life and thought  and    being    last,                                             Or    im–mor–ta– li – ty  endures.\n2. breath departs, their pomp and power                      And thoughts all va   –    nish    in   an  hour,                                     Nor can they make their promise good.\n3. truth  for  ev   –   er     stands  se – cure;                    He  saves  th'op–pressed, he  feeds the poor,                                       And none shall find his promise vain." E,2 E,2 E,4 | %14
 D,4 C,2 C,2 | B,,8- | B,,4 E,4 | E,2 E,2 F,4 | E,4 A,2 A,2 | (A,8- | A,4 E,4- | E,4) C,4 | %22
 B,,2 B,,2 D,2 D,2 | E,4 E,4 | A,,8 |] %25

